source/images/icons/icon-editorial/permis-humain.svg

<?xml version="1.0" encoding="UTF-8"?>
<svg width="80px" height="80px" viewBox="0 0 80 80" version="1.1" xmlns="http://www.w3.org/2000/svg" xmlns:xlink="http://www.w3.org/1999/xlink">
    <!-- Generator: Sketch 55.2 (78181) - https://sketchapp.com -->
    <title>Illustrative Icons/Permis-Humain</title>
    <desc>Created with Sketch.</desc>
    <g id="Illustrative-Icons/Permis-Humain" stroke="none" stroke-width="1" fill="none" fill-rule="evenodd">
        <path d="M53.6666667,33.6666667 L63.6666667,33.6666667 C64.5871413,33.6666667 65.3333334,32.9204746 65.3333334,32 C65.3333334,31.0795254 64.5871413,30.3333334 63.6666667,30.3333334 L53.6666667,30.3333334 C52.7461921,30.3333334 52.0000001,31.0795254 52.0000001,32 C52.0000001,32.9204746 52.7461921,33.6666667 53.6666667,33.6666667 Z M53.6666667,42 L60.3333334,42 C61.253808,42 62.0000001,41.2538079 62.0000001,40.3333334 C62.0000001,39.4128588 61.253808,38.6666667 60.3333334,38.6666667 L53.6666667,38.6666667 C52.7461921,38.6666667 52.0000001,39.4128588 52.0000001,40.3333334 C52.0000001,41.2538079 52.7461921,42 53.6666667,42 Z M53.6666667,50.3333334 L62.0000001,50.3333334 C62.9204747,50.3333334 63.6666667,49.5871413 63.6666667,48.6666667 C63.6666667,47.7461921 62.9204747,47 62.0000001,47 L53.6666667,47 C52.7461921,47 52.0000001,47.7461921 52.0000001,48.6666667 C52.0000001,49.5871413 52.7461921,50.3333334 53.6666667,50.3333334 Z M68.6666667,17 L13.6666667,17 C12.7461921,17 12,17.7461921 12,18.6666667 C12,19.5871413 12.7461921,20.3333333 13.6666667,20.3333333 L68.6666667,20.3333333 C69.5871413,20.3333333 70.3333334,21.0795254 70.3333334,22 L70.3333334,58.6666667 C70.3333334,59.5871413 69.5871413,60.3333334 68.6666667,60.3333334 L12,60.3333334 C11.0795254,60.3333334 10.3333333,59.5871413 10.3333333,58.6666667 L10.3333333,23.6666667 C10.3333333,22.7461921 9.58714125,22 8.66666667,22 C7.74619208,22 7,22.7461921 7,23.6666667 L7,58.6666667 C7,61.4280905 9.23857625,63.6666667 12,63.6666667 L68.6666667,63.6666667 C71.4280905,63.6666667 73.6666667,61.4280905 73.6666667,58.6666667 L73.6666667,22 C73.6666667,19.2385763 71.4280905,17 68.6666667,17 Z M47,40.4166667 C47,31.18 39.5233334,23.6666667 30.3333334,23.6666667 C21.1433334,23.6666667 13.6666667,31.18 13.6666667,40.4166667 C13.6666667,49.6533334 21.1433334,57.1666667 30.3333334,57.1666667 C39.5233334,57.1666667 47,49.6533334 47,40.4166667 Z M17,40.4166667 C17,33.0183334 22.9816667,27 30.3333334,27 C37.685,27 43.6666667,33.0183334 43.6666667,40.4166667 C43.6666667,47.815 37.685,53.8333334 30.3333334,53.8333334 C22.9816667,53.8333334 17,47.815 17,40.4166667 Z M34.59,49.45 C35.8160606,48.9164476 36.9305276,48.1565066 37.875,47.21 C38.308261,46.7915426 38.482021,46.1718702 38.3294953,45.5891545 C38.1769696,45.0064388 37.7218946,44.5513638 37.1391789,44.3988381 C36.5564632,44.2463124 35.9367908,44.4200724 35.5183334,44.8533334 C32.6545915,47.7165786 28.0120753,47.7165786 25.1483334,44.8533334 C24.7270577,44.4323554 24.1131938,44.2681036 23.5379784,44.4224501 C22.9627629,44.5767965 22.5135848,45.0262923 22.359645,45.6016168 C22.2057053,46.1769412 22.370391,46.7906888 22.7916667,47.2116667 C25.8922378,50.3075384 30.5697237,51.1943971 34.5883334,49.4483334 L34.59,49.45 Z M8.66666667,20.3333333 C9.58714125,20.3333333 10.3333333,19.5871413 10.3333333,18.6666667 C10.3333333,17.7461921 9.58714125,17 8.66666667,17 C7.74619208,17 7,17.7461921 7,18.6666667 C7,19.5871413 7.74619208,20.3333333 8.66666667,20.3333333 Z" id="Shape-color" fill="#ADB5BD"></path>
    </g>
</svg>

<svg width="80" height="80">
    <title>
        Illustrative Icons/Permis-Humain
    </title>
    <path d="M53.667 33.667h10a1.667 1.667 0 0 0 0-3.334h-10a1.667 1.667 0 1 0 0 3.334zm0 8.333h6.666a1.667 1.667 0 1 0 0-3.333h-6.666a1.667 1.667 0 0 0 0 3.333zm0 8.333H62A1.667 1.667 0 0 0 62 47h-8.333a1.667 1.667 0 0 0 0 3.333zm15-33.333h-55a1.667 1.667 0 0 0 0 3.333h55c.92 0 1.666.747 1.666 1.667v36.667c0 .92-.746 1.666-1.666 1.666H12c-.92 0-1.667-.746-1.667-1.666v-35a1.667 1.667 0 1 0-3.333 0v35a5 5 0 0 0 5 5h56.667a5 5 0 0 0 5-5V22a5 5 0 0 0-5-5zM47 40.417c0-9.237-7.477-16.75-16.667-16.75-9.19 0-16.666 7.513-16.666 16.75 0 9.236 7.476 16.75 16.666 16.75 9.19 0 16.667-7.514 16.667-16.75zm-30 0C17 33.018 22.982 27 30.333 27c7.352 0 13.334 6.018 13.334 13.417 0 7.398-5.982 13.416-13.334 13.416C22.982 53.833 17 47.815 17 40.417zm17.59 9.033a10.637 10.637 0 0 0 3.285-2.24 1.667 1.667 0 1 0-2.357-2.357 7.333 7.333 0 0 1-10.37 0 1.667 1.667 0 1 0-2.356 2.359 10.675 10.675 0 0 0 11.796 2.236l.002.002zM8.667 20.333a1.667 1.667 0 1 0 0-3.333 1.667 1.667 0 0 0 0 3.333z" fill="#ADB5BD" fill-rule="evenodd"/>
</svg>
